modules/feathericon/icons/github-alt.svg

<?xml version="1.0" encoding="UTF-8"?>
<svg width="24px" height="24px" viewBox="0 0 24 24" version="1.1" xmlns="http://www.w3.org/2000/svg" xmlns:xlink="http://www.w3.org/1999/xlink">
    <!-- Generator: sketchtool 52.2 (67145) - http://www.bohemiancoding.com/sketch -->
    <title>github-alt</title>
    <desc>Created with sketchtool.</desc>
    <g id="brand" stroke="none" stroke-width="1" fill="none" fill-rule="evenodd">
        <g id="github-alt" fill="#000000">
            <path d="M20.375,8.17401159 C20.5375,7.77401159 21.0625,6.18651159 20.2125,4.03651159 C20.2125,4.03651159 18.9,3.62401159 15.9125,5.66151159 C14.6625,5.31151159 13.325,5.26151159 12,5.26151159 C10.675,5.26151159 9.3375,5.31151159 8.0875,5.66151159 C5.1,3.61151159 3.7875,4.03651159 3.7875,4.03651159 C2.9375,6.18651159 3.4625,7.77401159 3.625,8.17401159 C2.6125,9.26151159 2,10.6615116 2,12.3615116 C2,18.7990116 6.1625,20.2490116 11.975,20.2490116 C17.7875,20.2490116 22,18.7990116 22,12.3615116 C22,10.6615116 21.3875,9.26151159 20.375,8.17401159 L20.375,8.17401159 Z M12,19.0240116 C7.875,19.0240116 4.525,18.8365116 4.525,14.8365116 C4.525,13.8865116 5,12.9865116 5.8,12.2490116 C7.1375,11.0240116 9.425,11.6740116 12,11.6740116 C14.5875,11.6740116 16.85,11.0240116 18.2,12.2490116 C19.0125,12.9865116 19.475,13.8740116 19.475,14.8365116 C19.475,18.8240116 16.125,19.0240116 12,19.0240116 L12,19.0240116 Z M8.8625,12.7615116 C8.0375,12.7615116 7.3625,13.7615116 7.3625,14.9865116 C7.3625,16.2115116 8.0375,17.2240116 8.8625,17.2240116 C9.6875,17.2240116 10.3625,16.2240116 10.3625,14.9865116 C10.3625,13.7490116 9.6875,12.7615116 8.8625,12.7615116 L8.8625,12.7615116 Z M15.1375,12.7615116 C14.3125,12.7615116 13.6375,13.7490116 13.6375,14.9865116 C13.6375,16.2240116 14.3125,17.2240116 15.1375,17.2240116 C15.9625,17.2240116 16.6375,16.2240116 16.6375,14.9865116 C16.6375,13.7490116 15.975,12.7615116 15.1375,12.7615116 L15.1375,12.7615116 Z" id="Shape"></path>
        </g>
    </g>
</svg>

<svg width="24" height="24" viewBox="0 0 24 24" xmlns="http://www.w3.org/2000/svg"><path d="M20.375 8.174c.163-.4.688-1.987-.163-4.137 0 0-1.312-.413-4.3 1.625-1.25-.35-2.587-.4-3.912-.4-1.325 0-2.662.05-3.912.4-2.988-2.05-4.3-1.625-4.3-1.625-.85 2.15-.325 3.737-.163 4.137C2.612 9.262 2 10.662 2 12.362c0 6.437 4.162 7.887 9.975 7.887S22 18.799 22 12.362c0-1.7-.613-3.1-1.625-4.188zM12 19.024c-4.125 0-7.475-.187-7.475-4.187 0-.95.475-1.85 1.275-2.588 1.338-1.225 3.625-.575 6.2-.575 2.588 0 4.85-.65 6.2.575.813.738 1.275 1.625 1.275 2.588 0 3.987-3.35 4.187-7.475 4.187zm-3.137-6.262c-.825 0-1.5 1-1.5 2.225s.674 2.237 1.5 2.237c.825 0 1.5-1 1.5-2.237 0-1.238-.675-2.225-1.5-2.225zm6.274 0c-.825 0-1.5.987-1.5 2.225 0 1.237.675 2.237 1.5 2.237s1.5-1 1.5-2.237c0-1.238-.662-2.225-1.5-2.225z" fill="#000" fill-rule="evenodd"/></svg>
